X:121
T:Mickey Nugent's* (h)
B:NFID.081c ("untitled highland")
121mickey
S:JD
L:1/8
M:C
R:hornpipe
Q:280
K:A=G
ed|cAAd BGGB|A2AB cded|cA (3ABc dBGB|ce (3dcB A2:|
AB|cdef gedB|G2GB dGBd|cdef gedg|a2a^g abc'a|
^geea fddf|edce dBGB|ABcd (3efg af|gedB HA2:|

%%%

